X:2408
T:The Hollin Buss
P:Farewell to the Tay
C:Old Pipe Tune
R:Jig (8x32)
B:RSCDS 24-8
Z:Anselm Lingnau <anselm@strathspey.org>
M:6/8
L:1/8
K:A
|:e|"A"A>AA c>BA|e2A "D"f>ec|"A"A>AA "F#m"c>BA|"D"f>ec "E7"B2e|
    "A"A>AA c>BA|e2A "D"f>ec|"A"a2e "F#m"f>ec|"E7"e>dB "A"A2:|
|:e|"A"a2e f>ec|A>ce "D"f>ec|"A"a2e "F#m"f>ec|"Bm"B>ce "E7"f2e|
    "A"a2e f>ec|A>ce "D"f>ec|"A"a2e "F#m"f>ec|"E7"e>dB "A"A2:|
